src/22/actions/configure.svg

<svg xmlns="http://www.w3.org/2000/svg" viewBox="0 0 22 22">
  <defs id="defs3051">
    <style type="text/css" id="current-color-scheme">
      .ColorScheme-Text {
        color:#5d656b;
      }
      </style>
  </defs>
 <path style="fill:currentColor;fill-opacity:1;stroke:none" 
     d="M 11.5 3 C 10.286139 3 9.2809778 3.8559279 9.0507812 5 L 3 5 L 3 6 L 9.0507812 6 C 9.2809778 7.1440721 10.286139 8 11.5 8 C 12.713861 8 13.719022 7.1440721 13.949219 6 L 19 6 L 19 5 L 13.949219 5 C 13.719022 3.8559279 12.713861 3 11.5 3 z M 5.5 14 C 4.1149999 14 3 15.115 3 16.5 C 3 17.885 4.1149999 19 5.5 19 C 6.7138604 19 7.7190223 18.144072 7.9492188 17 L 19 17 L 19 16 L 7.9492188 16 C 7.7190223 14.855928 6.7138604 14 5.5 14 z M 5.5 15 C 6.3310001 15 7 15.669 7 16.5 C 7 17.331 6.3310001 18 5.5 18 C 4.6689999 18 4 17.331 4 16.5 C 4 15.669 4.6689999 15 5.5 15 z "
     class="ColorScheme-Text"
     />
</svg>

<svg xmlns="http://www.w3.org/2000/svg" viewBox="0 0 22 22"><path d="M11.5 3a2.492 2.492 0 0 0-2.45 2H3v1h6.05c.231 1.144 1.236 2 2.45 2a2.492 2.492 0 0 0 2.45-2H19V5h-5.05a2.492 2.492 0 0 0-2.45-2zm-6 11A2.495 2.495 0 0 0 3 16.5C3 17.885 4.115 19 5.5 19a2.492 2.492 0 0 0 2.45-2H19v-1H7.95a2.492 2.492 0 0 0-2.45-2zm0 1c.831 0 1.5.669 1.5 1.5S6.331 18 5.5 18 4 17.331 4 16.5 4.669 15 5.5 15z" fill="currentColor" color="#5d656b"/></svg>
